packages/icons/svg/Universe_Kitchen2_32px.svg

<svg xmlns="http://www.w3.org/2000/svg" viewBox="0 0 32 32"><path d="M3 5v22a2 2 0 002 2h22a2 2 0 002-2V5a2 2 0 00-2-2H5a2 2 0 00-2 2zm24 0v4H5V5zM5 27V11h22v16z"/><path d="M23 12.5H9a.5.5 0 000 1h14a.5.5 0 000-1zM14 7.5h4a.5.5 0 000-1h-4a.5.5 0 000 1z"/><circle cx="11" cy="7" r=".5"/><circle cx="8" cy="7" r=".5"/><circle cx="24" cy="7" r=".5"/><circle cx="21" cy="7" r=".5"/><path d="M9.5 24.5h13a1 1 0 001-1V16a1 1 0 00-1-1h-13a1 1 0 00-1 1v7.5a1 1 0 001 1zm0-8.5h13v7.5h-13z"/></svg>

<svg xmlns="http://www.w3.org/2000/svg" viewBox="0 0 32 32"><defs></defs><g id="Icon"><path  d="M3,5V27a2,2,0,0,0,2,2H27a2,2,0,0,0,2-2V5a2,2,0,0,0-2-2H5A2,2,0,0,0,3,5ZM27,5V9H5V5ZM5,27V11H27V27Z"/><path  d="M23,12.5H9a.5.5,0,0,0,0,1H23a.5.5,0,0,0,0-1Z"/><path  d="M14,7.5h4a.5.5,0,0,0,0-1H14a.5.5,0,0,0,0,1Z"/><circle  cx="11" cy="7" r="0.5"/><circle  cx="8" cy="7" r="0.5"/><circle  cx="24" cy="7" r="0.5"/><circle  cx="21" cy="7" r="0.5"/><path  d="M9.5,24.5h13a1,1,0,0,0,1-1V16a1,1,0,0,0-1-1H9.5a1,1,0,0,0-1,1v7.5A1,1,0,0,0,9.5,24.5Zm0-8.5h13v7.5H9.5Z"/></g></svg>
